app/assets/v2/images/kudos/cellarius/Triangle.svg

<svg viewBox="0 0 110.9 128" xmlns="http://www.w3.org/2000/svg"><path d="m55.4 128 55.5-32v-64l-55.5-32-55.4 32v64z" fill="#766a68"/><g fill="#df9079"><path d="m101.4 37.4v53.1l-46 26.6-46-26.6v-53.1l46-26.6zm9.5 58.6v-64l-55.5-32-55.4 32v64l55.4 32z" opacity=".38"/><path d="m99.1 38.8v50.4l-43.7 25.2-43.6-25.2v-50.4l43.7-25.2zm-43.7 78.3 46-26.6v-53.1l-46-26.6-46 26.6v53.1z" opacity=".13"/><path d="m52.5 46-24.8 42.2h57.1l2.7-5-52 .1 19.4-33z"/><path d="m26 87.2 26.5-45.1 19.2 32.8h4.8l-24.5-42.2-28.6 49.9z"/></g><path d="m87.4 81.2-28.7-49.4h-5.1l26.3 45.1-38.6.2-2.6 4.2z" fill="#e6d9a5"/></svg>

<svg id="Layer_1" xmlns="http://www.w3.org/2000/svg" viewBox="0 0 110.9 128"><style>.st3{fill:#df9079}</style><path fill="#766a68" d="M55.4 128l55.5-32V32L55.4 0 0 32v64z"/><path d="M101.4 37.4v53.1l-46 26.6-46-26.6V37.4l46-26.6 46 26.6zm9.5 58.6V32L55.4 0 0 32v64l55.4 32 55.5-32z" opacity=".38" fill="#df9079"/><path class="st3" d="M99.1 38.8v50.4l-43.7 25.2-43.6-25.2V38.8l43.7-25.2 43.6 25.2zm-43.7 78.3l46-26.6V37.4l-46-26.6-46 26.6v53.1l46 26.6z" opacity=".13"/><path class="st3" d="M52.5 46L27.7 88.2h57.1l2.7-5-52 .1 19.4-33z"/><path class="st3" d="M26 87.2l26.5-45.1 19.2 32.8h4.8L52 32.7 23.4 82.6z"/><path fill="#e6d9a5" d="M87.4 81.2L58.7 31.8h-5.1l26.3 45.1-38.6.2-2.6 4.2z"/></svg>
